X: 67
T:Free and Easy (#263)
M:4/4
L:1/8
S:Rice-Walsh manuscript
R:Reel
K:D
A2 EG FDDE|FADG FAdA|F2 EG FDDE|FABc dABG|
A2 EG FDDE|FADG FAdA|A2 EG FDDE|FABc dAFA||
Beee (3efg ed|Bdef gfge|Beee (3efg ed|BABc dAFA|
Beee (3efg ed|Bdef g2 gg|agfg afge|d2 dc dABG||

